X: 113
T:McFadden's Handsome Daughter
M:4/4
L:1/8
R:reel
N:s.auch RH01
Z:Barney
K:A
~E3 F ABcA|~B3 c ecAF|~E3 F A2 af|ecBd cAAF|
EDEF ABcA|BABc ecAF|~E3 F A2 af|ecBd cA A2|]
aece fgaf|(3efe cA BAFA|aece fgaf|ecBc A2 (3efg|
aece aecA|~B2 cA BAFA|agfe fgaf|edcB ABcd|]
e2 ef edcd|ecac bcac|cdef ecAF|EFAB cA (3AAA|
e2 ef edcd |ecac bcac|cefg a2 af|e2 ce aecA||
